elements/app-hax/lib/assets/images/CYOPhone.svg

<svg xmlns="http://www.w3.org/2000/svg" fill="none" width="246" height="283" viewBox="0 0 246 283"><path d="M35.75 24h159.5v103H35.75z" stroke="#000" stroke-width="8"/><path d="M67.625 108.226v-1.125H66.5v-1.125h-1.125v-3.375H66.5v-1.125h1.125v-1.125h4.5v1.125h1.125v1.125H71v-1.125h-2.25v1.125h-1.125v3.375h1.125v1.125H71v-1.125h2.25v1.125h-1.125v1.125h-4.5Zm10.125-4.5h1.125v1.125H77.75v3.375H75.5v-5.625h2.25v1.125Zm4.5-1.125v1.125h-3.375v-1.125h3.375Zm2.25 5.625v-1.125h-1.125v-3.375H84.5v-1.125h5.625v1.125h1.125v2.25h-5.625v1.125h4.5v1.125H84.5Zm1.125-3.375H89v-1.125h-3.375v1.125Zm7.875 3.375v-1.125h-1.125v-1.125H93.5v-1.125H98v-1.125h-4.5v-1.125h5.625v1.125h1.125v4.5H93.5Zm1.125-1.125H98v-1.125h-3.375v1.125Zm10.125 1.125v-4.5h-2.25v-1.125h2.25v-2.25H107v2.25h2.25v1.125H107v4.5h-2.25Zm6.75 0v-1.125h-1.125v-3.375h1.125v-1.125h5.625v1.125h1.125v2.25h-5.625v1.125h4.5v1.125H111.5Zm1.125-3.375H116v-1.125h-3.375v1.125Zm19.125 3.375v-3.375h-1.125v-1.125H129.5v-3.375h2.25v3.375H134v-3.375h2.25v3.375h-1.125v1.125H134v3.375h-2.25Zm6.75 0v-1.125h-1.125v-3.375h1.125v-1.125h5.625v1.125h1.125v3.375h-1.125v1.125H138.5Zm1.125-1.125H143v-3.375h-3.375v3.375Zm7.875 1.125v-1.125h-1.125v-4.5h2.25v4.5H152v-4.5h2.25v5.625h-6.75Zm11.25-4.5h1.125v1.125h-1.125v3.375h-2.25v-5.625h2.25v1.125Zm4.5-1.125v1.125h-3.375v-1.125h3.375Zm-60.75 14.625v-1.125h-1.125v-5.625h1.125v-1.125h5.625v1.125h1.125v5.625h-1.125v1.125H102.5Zm1.125-1.125H107v-5.625h-3.375v5.625Zm9 0h1.125v1.125h-2.25v-1.125h-1.125v-4.5h2.25v4.5Zm2.25-4.5v4.5h-1.125v-4.5h1.125Zm3.375 0v4.5h-1.125v1.125h-2.25v-1.125H116v-4.5h2.25Zm1.125 5.625v-5.625h6.75v1.125h1.125v4.5H125v-4.5h-3.375v4.5h-2.25Zm15.069-55.782v25H95.5V47.556h25V42H95.556C92.5 42 90 44.5 90 47.556v38.888C90 89.5 92.5 92 95.556 92h38.888C137.5 92 140 89.5 140 86.444v-25h-5.556Zm-5.611 0 2.611-5.722 5.723-2.61-5.723-2.612-2.611-5.722-2.611 5.722-5.722 2.611 5.722 2.611 2.611 5.722Zm-10.416 2.084-3.473-7.64-3.472 7.64L103.833 67l7.639 3.472 3.472 7.64 3.473-7.64L126.056 67l-7.639-3.472Z" fill="#000"/><path d="M29 20v111M202 20v111" stroke="#000" stroke-width="7"/><path d="M35.75 169h159.5v103H35.75z" fill="#373737" stroke="#fff" stroke-width="8"/><path d="M67.625 252.397v-1.125H66.5v-1.125h-1.125v-3.375H66.5v-1.125h1.125v-1.125h4.5v1.125h1.125v1.125H71v-1.125h-2.25v1.125h-1.125v3.375h1.125v1.125H71v-1.125h2.25v1.125h-1.125v1.125h-4.5Zm10.125-4.5h1.125v1.125H77.75v3.375H75.5v-5.625h2.25v1.125Zm4.5-1.125v1.125h-3.375v-1.125h3.375Zm2.25 5.625v-1.125h-1.125v-3.375H84.5v-1.125h5.625v1.125h1.125v2.25h-5.625v1.125h4.5v1.125H84.5Zm1.125-3.375H89v-1.125h-3.375v1.125Zm7.875 3.375v-1.125h-1.125v-1.125H93.5v-1.125H98v-1.125h-4.5v-1.125h5.625v1.125h1.125v4.5H93.5Zm1.125-1.125H98v-1.125h-3.375v1.125Zm10.125 1.125v-4.5h-2.25v-1.125h2.25v-2.25H107v2.25h2.25v1.125H107v4.5h-2.25Zm6.75 0v-1.125h-1.125v-3.375h1.125v-1.125h5.625v1.125h1.125v2.25h-5.625v1.125h4.5v1.125H111.5Zm1.125-3.375H116v-1.125h-3.375v1.125Zm19.125 3.375v-3.375h-1.125v-1.125H129.5v-3.375h2.25v3.375H134v-3.375h2.25v3.375h-1.125v1.125H134v3.375h-2.25Zm6.75 0v-1.125h-1.125v-3.375h1.125v-1.125h5.625v1.125h1.125v3.375h-1.125v1.125H138.5Zm1.125-1.125H143v-3.375h-3.375v3.375Zm7.875 1.125v-1.125h-1.125v-4.5h2.25v4.5H152v-4.5h2.25v5.625h-6.75Zm11.25-4.5h1.125v1.125h-1.125v3.375h-2.25v-5.625h2.25v1.125Zm4.5-1.125v1.125h-3.375v-1.125h3.375Zm-60.75 14.625v-1.125h-1.125v-5.625h1.125v-1.125h5.625v1.125h1.125v5.625h-1.125v1.125H102.5Zm1.125-1.125H107v-5.625h-3.375v5.625Zm9 0h1.125v1.125h-2.25v-1.125h-1.125v-4.5h2.25v4.5Zm2.25-4.5v4.5h-1.125v-4.5h1.125Zm3.375 0v4.5h-1.125v1.125h-2.25v-1.125H116v-4.5h2.25Zm1.125 5.625v-5.625h6.75v1.125h1.125v4.5H125v-4.5h-3.375v4.5h-2.25Zm16.069-55.953v25H96.5v-38.888h25V186H96.556C93.5 186 91 188.5 91 191.556v38.888C91 233.5 93.5 236 96.556 236h38.888c3.056 0 5.556-2.5 5.556-5.556v-25h-5.556Zm-5.611 0 2.611-5.722 5.723-2.611-5.723-2.611-2.611-5.722-2.611 5.722-5.722 2.611 5.722 2.611 2.611 5.722Zm-10.416 2.084-3.473-7.639-3.472 7.639-7.639 3.472 7.639 3.472 3.472 7.639 3.473-7.639 7.639-3.472-7.639-3.472Z" fill="#fff"/><path d="M29 165v111m173-111v111" stroke="#fff" stroke-width="7"/><rect width="261" height="282" x="-15.5" y=".5" stroke="#7B61FF" stroke-dasharray="10 5" rx="4.5"/></svg>

<svg width="246" height="283" viewBox="0 0 246 283" fill="none" xmlns="http://www.w3.org/2000/svg">
<rect x="35.75" y="24" width="159.5" height="103" stroke="black" stroke-width="8"/>
<path d="M67.625 108.226V107.101H66.5V105.976H65.375V102.601H66.5V101.476H67.625V100.351H72.125V101.476H73.25V102.601H71V101.476H68.75V102.601H67.625V105.976H68.75V107.101H71V105.976H73.25V107.101H72.125V108.226H67.625ZM77.75 103.726H78.875V104.851H77.75V108.226H75.5V102.601H77.75V103.726ZM82.25 102.601V103.726H78.875V102.601H82.25ZM84.5 108.226V107.101H83.375V103.726H84.5V102.601H90.125V103.726H91.25V105.976H85.625V107.101H90.125V108.226H84.5ZM85.625 104.851H89V103.726H85.625V104.851ZM93.5 108.226V107.101H92.375V105.976H93.5V104.851H98V103.726H93.5V102.601H99.125V103.726H100.25V108.226H93.5ZM94.625 107.101H98V105.976H94.625V107.101ZM104.75 108.226V103.726H102.5V102.601H104.75V100.351H107V102.601H109.25V103.726H107V108.226H104.75ZM111.5 108.226V107.101H110.375V103.726H111.5V102.601H117.125V103.726H118.25V105.976H112.625V107.101H117.125V108.226H111.5ZM112.625 104.851H116V103.726H112.625V104.851ZM131.75 108.226V104.851H130.625V103.726H129.5V100.351H131.75V103.726H134V100.351H136.25V103.726H135.125V104.851H134V108.226H131.75ZM138.5 108.226V107.101H137.375V103.726H138.5V102.601H144.125V103.726H145.25V107.101H144.125V108.226H138.5ZM139.625 107.101H143V103.726H139.625V107.101ZM147.5 108.226V107.101H146.375V102.601H148.625V107.101H152V102.601H154.25V108.226H147.5ZM158.75 103.726H159.875V104.851H158.75V108.226H156.5V102.601H158.75V103.726ZM163.25 102.601V103.726H159.875V102.601H163.25ZM102.5 117.226V116.101H101.375V110.476H102.5V109.351H108.125V110.476H109.25V116.101H108.125V117.226H102.5ZM103.625 116.101H107V110.476H103.625V116.101ZM112.625 116.101H113.75V117.226H111.5V116.101H110.375V111.601H112.625V116.101ZM114.875 111.601V116.101H113.75V111.601H114.875ZM118.25 111.601V116.101H117.125V117.226H114.875V116.101H116V111.601H118.25ZM119.375 117.226V111.601H126.125V112.726H127.25V117.226H125V112.726H121.625V117.226H119.375Z" fill="black"/>
<path d="M134.444 61.4444V86.4444H95.5V47.5556H120.5V42H95.5556C92.5 42 90 44.5 90 47.5556V86.4444C90 89.5 92.5 92 95.5556 92H134.444C137.5 92 140 89.5 140 86.4444V61.4444H134.444ZM128.833 61.4444L131.444 55.7222L137.167 53.1111L131.444 50.5L128.833 44.7778L126.222 50.5L120.5 53.1111L126.222 55.7222L128.833 61.4444ZM118.417 63.5278L114.944 55.8889L111.472 63.5278L103.833 67L111.472 70.4722L114.944 78.1111L118.417 70.4722L126.056 67L118.417 63.5278Z" fill="black"/>
<path d="M29 20V131" stroke="black" stroke-width="7"/>
<path d="M202 20V131" stroke="black" stroke-width="7"/>
<rect x="35.75" y="169" width="159.5" height="103" fill="#373737" stroke="white" stroke-width="8"/>
<path d="M67.625 252.397V251.272H66.5V250.147H65.375V246.772H66.5V245.647H67.625V244.522H72.125V245.647H73.25V246.772H71V245.647H68.75V246.772H67.625V250.147H68.75V251.272H71V250.147H73.25V251.272H72.125V252.397H67.625ZM77.75 247.897H78.875V249.022H77.75V252.397H75.5V246.772H77.75V247.897ZM82.25 246.772V247.897H78.875V246.772H82.25ZM84.5 252.397V251.272H83.375V247.897H84.5V246.772H90.125V247.897H91.25V250.147H85.625V251.272H90.125V252.397H84.5ZM85.625 249.022H89V247.897H85.625V249.022ZM93.5 252.397V251.272H92.375V250.147H93.5V249.022H98V247.897H93.5V246.772H99.125V247.897H100.25V252.397H93.5ZM94.625 251.272H98V250.147H94.625V251.272ZM104.75 252.397V247.897H102.5V246.772H104.75V244.522H107V246.772H109.25V247.897H107V252.397H104.75ZM111.5 252.397V251.272H110.375V247.897H111.5V246.772H117.125V247.897H118.25V250.147H112.625V251.272H117.125V252.397H111.5ZM112.625 249.022H116V247.897H112.625V249.022ZM131.75 252.397V249.022H130.625V247.897H129.5V244.522H131.75V247.897H134V244.522H136.25V247.897H135.125V249.022H134V252.397H131.75ZM138.5 252.397V251.272H137.375V247.897H138.5V246.772H144.125V247.897H145.25V251.272H144.125V252.397H138.5ZM139.625 251.272H143V247.897H139.625V251.272ZM147.5 252.397V251.272H146.375V246.772H148.625V251.272H152V246.772H154.25V252.397H147.5ZM158.75 247.897H159.875V249.022H158.75V252.397H156.5V246.772H158.75V247.897ZM163.25 246.772V247.897H159.875V246.772H163.25ZM102.5 261.397V260.272H101.375V254.647H102.5V253.522H108.125V254.647H109.25V260.272H108.125V261.397H102.5ZM103.625 260.272H107V254.647H103.625V260.272ZM112.625 260.272H113.75V261.397H111.5V260.272H110.375V255.772H112.625V260.272ZM114.875 255.772V260.272H113.75V255.772H114.875ZM118.25 255.772V260.272H117.125V261.397H114.875V260.272H116V255.772H118.25ZM119.375 261.397V255.772H126.125V256.897H127.25V261.397H125V256.897H121.625V261.397H119.375Z" fill="white"/>
<path d="M135.444 205.444V230.444H96.5V191.556H121.5V186H96.5556C93.5 186 91 188.5 91 191.556V230.444C91 233.5 93.5 236 96.5556 236H135.444C138.5 236 141 233.5 141 230.444V205.444H135.444ZM129.833 205.444L132.444 199.722L138.167 197.111L132.444 194.5L129.833 188.778L127.222 194.5L121.5 197.111L127.222 199.722L129.833 205.444ZM119.417 207.528L115.944 199.889L112.472 207.528L104.833 211L112.472 214.472L115.944 222.111L119.417 214.472L127.056 211L119.417 207.528Z" fill="white"/>
<path d="M29 165V276" stroke="white" stroke-width="7"/>
<path d="M202 165V276" stroke="white" stroke-width="7"/>
<rect x="-15.5" y="0.5" width="261" height="282" rx="4.5" stroke="#7B61FF" stroke-dasharray="10 5"/>
</svg>
